static/icons/basic/shield.svg

<svg width="24" height="30" viewBox="0 0 24 30" fill="none" xmlns="http://www.w3.org/2000/svg">
<path d="M7.99967 14.3336L10.6663 17.0002L16.6663 11.0002M22.6663 15.0002C22.6663 21.5448 15.5277 26.3048 12.9303 27.8201C12.6351 27.9923 12.4875 28.0784 12.2792 28.1231C12.1176 28.1577 11.8818 28.1577 11.7201 28.1231C11.5118 28.0784 11.3642 27.9923 11.069 27.8201C8.47162 26.3048 1.33301 21.5448 1.33301 15.0002V8.6237C1.33301 7.55769 1.33301 7.02468 1.50735 6.56651C1.66137 6.16176 1.91165 5.8006 2.23655 5.51427C2.60433 5.19015 3.10341 5.003 4.10155 4.6287L11.2506 1.9478C11.5278 1.84385 11.6664 1.79188 11.809 1.77127C11.9355 1.753 12.0639 1.753 12.1904 1.77127C12.3329 1.79188 12.4715 1.84385 12.7487 1.9478L19.8978 4.6287C20.8959 5.003 21.395 5.19015 21.7628 5.51427C22.0877 5.8006 22.338 6.16176 22.492 6.56651C22.6663 7.02468 22.6663 7.55769 22.6663 8.6237V15.0002Z" stroke="#121315" stroke-width="2.66667" stroke-linecap="round" stroke-linejoin="round"/>
</svg>

<svg xmlns="http://www.w3.org/2000/svg" width="24" height="30" fill="none"><path stroke="#121315" stroke-linecap="round" stroke-linejoin="round" stroke-width="2.667" d="M8 14.334 10.666 17l6-6m6 4c0 6.545-7.138 11.305-9.736 12.82-.295.172-.442.258-.65.303a1.519 1.519 0 0 1-.56 0c-.208-.045-.356-.13-.651-.303C8.472 26.305 1.333 21.545 1.333 15V8.624c0-1.066 0-1.6.174-2.057.154-.405.405-.766.73-1.053.367-.324.866-.511 1.865-.885l7.149-2.681c.277-.104.415-.156.558-.177a1.35 1.35 0 0 1 .381 0c.143.02.282.073.559.177l7.149 2.68c.998.375 1.497.562 1.865.886.325.287.575.648.729 1.053.174.458.174.99.174 2.057z"/></svg>
